!!!OTL: Kehen zaoyangjun
!!!ARE: Asia, China,ÿJiangsu Funing
!! III, 464
!!!SCT: C2027
!!!YEM: Copyright 1995, estate of Helmut Schaffrath.
**kern
*ICvox
*Ivox
*M2/4
*k[b-e-]
*B-:
{8bb-
16bb-
16ccc
8.fff
16ddd
=1
16ccc
16ddd
4ccc
16ddd
16ccc
=2
8bb-
8ddd
16ccc
16bb-
8gg
=3
2ff}
=4
{8ff
16ff
16gg
8.bb-
16ccc
=5
8fff
16fff
16ddd
8.ccc
16ddd
=6
8.bb-
16ddd
16ccc
8bb-
16gg
=7
2ff}
=8
{8ff
16ff
16gg
8bb-
16bb-
16ccc
=9
16fff
16ggg
16fff
16ddd
8.ccc
16ddd
=10
8bb-
16bb-
16ddd
16ccc
16bb-
8gg
=11
8ff
16ff
16dd
8.ff}
{16gg
=12
8bb-
16bb-
16gg
16ff
16gg
8bb-
=13
8gg
8bb-
8dd
16cc
16dd
=14
8ff
16gg
16bb-
16gg
16ff
16dd
16cc
=15
2b-}
=16
{8ddd
16ddd
16ccc
16bb-
16ccc
16ddd
16fff
=17
4.ccc
16ccc
16gg
=18
8bb-
16bb-
16gg
16ff
16gg
8bb-
=19
8gg
8bb-
8dd
16cc
16dd
=20
8ff
16gg
16bb-
16gg
16ff
16dd
16cc
=21
2b-}
==
!!!AGN: Xiaodiao, Ershisizhi hua
!!!AMT: simple duple
!!!AIN: vox
!!!EED: Helmut Schaffrath
!!!EEV: 1.0
*-
